X:12
T:Mornings at Bonnie Doon
C:André Marchand
S:Tony McManus - Pourquoi Quebec
Z:robin.beech@mcgill.ca
R:air
M:3/4
L:1/8
K:G
B,D GA Bd | c2- cA Bd | GA BG EG | FG EF DC |
B,D GA Bd | c2- cA BA | GA BG DF | G6 ::
DA,D FGA | d2 dB cA | A (3B/A/G/ FG AG | FE DC A,G, |
FA, DF GA | c2- cD Ac | BA GA DF | G6 :|
